X: 1
T: Bill McEvoy's No. 2
C:Sean Ryan
M: 4/4
L: 1/8
R: reel
K: Gmaj
GF|G2 Bd ~g3e|=fdc_B AF~F2|C=F ~F2 dFcF|_BAG=F DGG^F|
DGBd ~g3e|=fdc_B AF~F2|C=F ~F2 dFcF| _BAG=F DG:||
Bd|g2 bg dgbg|fgag fdef|g2 bg dgbg|agfa ~g3a|
bgag gfde|fgag fdcA|DGBd gbag| fdcA G2:||
